packages/assets/static/images/icons/file-video.svg

<svg width="24" height="24" viewBox="0 0 24 24" xmlns="http://www.w3.org/2000/svg">
<path d="M20.4056 7.71986L15.1556 2.46986C15.0859 2.40024 15.0032 2.34503 14.9121 2.30739C14.8211 2.26975 14.7235 2.25041 14.625 2.25049H5.625C5.22718 2.25049 4.84564 2.40852 4.56434 2.68983C4.28304 2.97113 4.125 3.35266 4.125 3.75049V10.5005C4.125 10.6994 4.20402 10.8902 4.34467 11.0308C4.48532 11.1715 4.67609 11.2505 4.875 11.2505C5.07391 11.2505 5.26468 11.1715 5.40533 11.0308C5.54598 10.8902 5.625 10.6994 5.625 10.5005V3.75049H13.875V8.25049C13.875 8.4494 13.954 8.64017 14.0947 8.78082C14.2353 8.92147 14.4261 9.00049 14.625 9.00049H19.125V20.2505H18.375C18.1761 20.2505 17.9853 20.3295 17.8447 20.4702C17.704 20.6108 17.625 20.8016 17.625 21.0005C17.625 21.1994 17.704 21.3902 17.8447 21.5308C17.9853 21.6715 18.1761 21.7505 18.375 21.7505H19.125C19.5228 21.7505 19.9044 21.5925 20.1857 21.3111C20.467 21.0298 20.625 20.6483 20.625 20.2505V8.25049C20.6251 8.15197 20.6057 8.0544 20.5681 7.96335C20.5305 7.8723 20.4753 7.78957 20.4056 7.71986ZM15.375 4.8108L18.0647 7.50049H15.375V4.8108ZM14.9888 13.5942C14.8716 13.5294 14.7392 13.4971 14.6053 13.5007C14.4714 13.5044 14.341 13.5438 14.2275 13.6149L12.3572 14.783C12.305 14.427 12.1266 14.1016 11.8545 13.8662C11.5824 13.6307 11.2348 13.501 10.875 13.5005H4.875C4.47718 13.5005 4.09564 13.6585 3.81434 13.9398C3.53304 14.2211 3.375 14.6027 3.375 15.0005V19.5005C3.375 19.8983 3.53304 20.2798 3.81434 20.5611C4.09564 20.8425 4.47718 21.0005 4.875 21.0005H10.875C11.2348 21 11.5824 20.8702 11.8545 20.6348C12.1266 20.3994 12.305 20.074 12.3572 19.718L14.2275 20.8861C14.341 20.9571 14.4714 20.9963 14.6052 20.9999C14.739 21.0034 14.8713 20.971 14.9884 20.9062C15.1055 20.8413 15.2031 20.7463 15.2711 20.631C15.339 20.5157 15.3749 20.3843 15.375 20.2505V14.2505C15.3751 14.1166 15.3393 13.9851 15.2714 13.8697C15.2034 13.7543 15.1059 13.6592 14.9888 13.5942ZM10.875 19.5005H4.875V15.0005H10.875V19.5005ZM13.875 18.8977L12.375 17.9602V16.5408L13.875 15.6033V18.8977Z"/>
</svg>

<svg viewBox="0 0 24 24" xmlns="http://www.w3.org/2000/svg" aria-hidden="true" fill="currentColor"><path d="m20.406 7.72-5.25-5.25a.75.75 0 0 0-.531-.22h-9a1.5 1.5 0 0 0-1.5 1.5v6.75a.75.75 0 1 0 1.5 0V3.75h8.25v4.5a.75.75 0 0 0 .75.75h4.5v11.25h-.75a.75.75 0 1 0 0 1.5h.75a1.5 1.5 0 0 0 1.5-1.5v-12a.75.75 0 0 0-.22-.53m-5.031-2.91 2.69 2.69h-2.69zm-.386 8.784a.75.75 0 0 0-.762.02l-1.87 1.169a1.5 1.5 0 0 0-1.482-1.282h-6a1.5 1.5 0 0 0-1.5 1.5v4.5a1.5 1.5 0 0 0 1.5 1.5h6a1.5 1.5 0 0 0 1.482-1.283l1.87 1.168a.75.75 0 0 0 1.148-.636v-6a.75.75 0 0 0-.386-.656M10.875 19.5h-6V15h6zm3-.602-1.5-.938v-1.42l1.5-.937z"/></svg>
